X: 1
T:Polska i Gm efter Myrs-Plle
A:Torp, Medelpad
O:Sweden
M:3/4
L:1/16
K:Gm
D2|G3A B4 G2B2|(Ac)A^F G6 D2|(G^F)GA (BA)Bc (d^c)d=e|\
f2fd (=eg)e^c d3D||G3A B4 G2B2|(Ac)A^F G6 D2|\
(G^F)GA (BA)Bc d2dB|(Ac)A^F G6::\
d2|d3g d2g2 (ga)gf|d3f d2f2 (fg)fe|d4 A3c B2G2|\
A2BA G2AG ^F2D2|d3g d2g2 (ga)gf|d3f d2f2 (fg)fe|\
d2ed c2dc B2G2|(Ac)A^F G6:|\
T:Understmma
B,2|D3^F G4 B,2D2|C4 B,6 G,2|D2D^F (GF)GA (D=E)=FG|\
A2AF =E2E2 ^F3B,|D3^F G4 B,2D2|C4 B,6 G,2|\
D2D^F (GF)GA B2BG|D2CA, [B,6D6]::\
B2|D3B G,2B2 (Bc)BA|F3A F2A2 (AB)AG|[^F4A4] F3A G2D2|\
^F2GF D2CB, A,2G,2|B,3D B,2D2 [B,2D2][B,2D2]|\
[A,3F3][FA] [A,2F2][F2A2] [A,2F2][F2A2]|B2cB A2BA G2B,2|\
D2CA, [B,6D6]:|
